X: 1559
T: Kildare Fancy., The
T: ro.ga ci.lle-nara.
N:"Collected from Ennis"
R:Hornpipe
B:O'Neill's 1559
M:2/4
K:D
d>B|A>FD>F A>Fd>B|(3ABA F>A f>ed>c|B>AB>f g>fg>d|e>dc>B A2d>c|
|A>FD>F A>Fd>B|(3ABA F>A f>ed>c|B>AB>f g>ef>d|e>c (3ABc d2:|
|:d>e|f>dc>d B>dA>F|D>dc>d f>dc>d|e>A(3AAA f>A (3AAA|(efe (3dcB A2d>e|
f>dc>d B>dA>F|D>dc>d f>dc>d|Ee>Af>A G>ag>a|e>c (3ABc d2:|


